build/assets/fonts/1751c6d6fbb09e086eaf46c3897268d7.svg

<svg preserveAspectRatio="xMinYMin" viewBox="-80 0 828 828" version="1.1" xmlns="http://www.w3.org/2000/svg" xmlns:xlink="http://www.w3.org/1999/xlink"><title>slepnir-mobile</title><desc>Created with Sketch.</desc><defs><linearGradient x1="50%" y1="0%" x2="50%" y2="100%" id="linearGradient-1"><stop stop-color="#52E6FE" offset="0%"/><stop stop-color="#1B4DF8" offset="100%"/></linearGradient></defs><g id="Page-1" stroke="none" stroke-width="1" fill="none" fill-rule="evenodd"><path d="M293.475,347.297068 C283.45,352.104068 273.64,357.443068 263.352,361.599068 C246.401,368.447068 229.499,375.953068 211.873,380.377068 C202.072,382.837068 195.831,387.189068 190.082,394.624068 C179.493,408.315068 169.059,422.246068 157.213,434.806068 C148.188,444.375068 139.012,453.552068 131.623,464.580068 C119.671,482.417068 101.794,488.976068 81.217,486.645068 C44.921,482.534068 18.833,463.752068 5.387,429.309068 C2.293,421.384068 1.355,412.522068 0.196,403.987068 C-0.238,400.796068 0.745,396.843068 2.414,394.027068 C13.199,375.835068 24.237,357.790068 35.409,339.832068 C58.466,302.771068 81.833,265.903068 104.702,228.727068 C112.996,215.244068 119.563,200.904068 123.828,185.456068 C128.892,167.116068 139.781,151.880068 151.94,137.552068 C164.847,122.342068 179.893,109.512068 196.151,98.0410681 C197.352,97.1950681 198.398,96.1290681 200.105,94.6570681 C197.299,92.1960681 194.738,89.9740681 192.203,87.7220681 C171.865,69.6650681 155.765,48.4660681 144.988,23.4170681 C143.294,19.4800681 141.849,15.1720681 141.611,10.9610681 C141.437,7.86906806 142.61,3.91306806 144.649,1.67906806 C147.332,-1.25993194 151.171,0.340068058 154.226,2.44406806 C167.673,11.7060681 180.756,21.5490681 194.611,30.1490681 C214.834,42.7030681 235.529,54.5110681 256.226,66.2780681 C259.497,68.1380681 263.823,68.7490681 267.691,68.8560681 C301.441,69.7930681 334.381,75.0140681 365.672,88.0650681 C424.922,112.776068 466.492,154.770068 488.163,215.584068 C496.484,238.935068 499.243,263.122068 497.198,287.891068 C495.926,303.304068 496.118,318.890068 493.992,334.168068 C490.646,358.214068 486.31,382.145068 481.648,405.979068 C475.415,437.847068 469.472,469.741068 467.018,502.158068 C465.448,522.892068 464.039,543.649068 463.146,564.421068 C462.346,583.051068 462.504,601.721068 461.85,620.360068 C461.737,623.567068 460.343,627.209068 458.395,629.781068 C451.964,638.273068 445.144,646.486068 438.143,654.519068 C436.638,656.246068 433.752,657.703068 431.498,657.708068 C353.166,657.871068 274.834,657.879068 196.503,657.690068 C193.937,657.684068 190.647,656.044068 188.94,654.082068 C181.623,645.668068 174.667,636.928068 167.845,628.102068 C166.56,626.438068 165.923,623.827068 165.954,621.668068 C166.112,610.850068 166.162,600.002068 167.042,589.229068 C169.315,561.387068 174.828,534.203068 184.879,508.040068 C198.136,473.533068 216.668,441.960068 239.485,413.053068 C256.492,391.506068 274.776,370.967068 292.488,349.977068 C293.009,349.359068 293.504,348.720068 294.011,348.091068 C293.832,347.826068 293.654,347.561068 293.475,347.297068 Z M314.08,827.891068 C254.752,827.891068 195.424,827.893068 136.097,827.888068 C128.565,827.888068 128.546,827.613068 127.777,820.139068 C126.108,803.927068 124.338,787.720068 122.242,771.559068 C121.698,767.361068 122.454,764.223068 125.261,761.122068 C140.572,744.206068 155.775,727.191068 171.004,710.201068 C178.785,701.520068 186.643,692.905068 194.261,684.082068 C196.963,680.952068 199.798,679.447068 204.084,679.457068 C277.41,679.618068 350.736,679.652068 424.062,679.603068 C427.743,679.600068 430.184,680.793068 432.619,683.528068 C456.208,710.022068 479.958,736.374068 503.558,762.859068 C504.723,764.166068 505.64,766.407068 505.464,768.086068 C503.539,786.446068 501.263,804.770068 499.364,823.132068 C498.981,826.828068 497.544,827.961068 494.063,827.927068 C482.399,827.813068 470.732,827.890068 459.067,827.891068 L314.08,827.891068 Z M551.826,391.158068 C553.586,399.645068 554.911,407.934068 557.117,415.982068 C558.501,421.030068 560.241,426.535068 563.515,430.400068 C571.197,439.468068 572.706,449.554068 570.089,460.355068 C568.271,467.857068 565.578,475.282068 562.224,482.233068 C559.512,487.852068 555.847,488.727068 550.057,486.175068 C544.283,483.631068 538.945,480.097068 533.168,477.562068 C530.398,476.346068 525.638,474.934068 524.262,476.235068 C521.195,479.136068 524.306,482.728068 526.326,485.425068 C531.615,492.487068 537.089,499.417068 542.672,506.251068 C550.803,516.204068 551.319,527.219068 544.576,537.310068 C536.24,549.782068 531.495,562.613068 531.331,577.778068 C531.12,597.267068 519.484,603.827068 504.04,606.635068 C498.327,607.674068 492.478,607.957068 486.699,608.651068 C483.78,609.001068 482.834,607.589068 482.875,604.906068 C482.971,598.743068 482.758,592.566068 483.06,586.414068 C484.298,561.156068 484.604,535.789068 487.287,510.679068 C490.605,479.616068 495.63,448.719068 500.503,417.843068 C504.47,392.702068 509.769,367.768068 513.558,342.603068 C515.681,328.499068 516.039,314.120068 516.99,299.851068 C517.543,291.551068 517.915,283.227068 517.995,274.911068 C518.456,226.987068 503.025,184.260068 474.732,146.079068 C436.122,93.9730681 383.599,64.2540681 320.464,52.7640681 C304.175,49.7990681 287.433,49.3270681 270.899,47.7010681 C269.635,47.5770681 268.379,47.3840681 265.728,47.0450681 C270.61,42.0680681 274.576,37.7200681 278.865,33.7180681 C286.954,26.1710681 295.412,18.9970681 306.863,17.2980681 C313.265,16.3480681 319.883,16.6750681 326.212,15.4430681 C334.031,13.9210681 341.799,11.8030681 349.332,9.19906806 C373.237,0.936068058 395.614,6.12506806 417.543,16.2500681 C417.837,16.3860681 418.122,16.6070681 418.325,16.8580681 C418.518,17.0970681 418.599,17.4290681 419.008,18.3430681 C417.09,19.1280681 415.239,20.0580681 413.286,20.6550681 C405.485,23.0430681 397.485,24.8920681 389.892,27.8100681 C385.2,29.6130681 380.937,32.7490681 376.844,35.7780681 C375.411,36.8390681 375.063,39.3670681 373.588,42.6130681 C379.169,41.2060681 383.224,39.9650681 387.367,39.1810681 C399.994,36.7900681 412.632,37.2220681 425.008,40.4890681 C442.399,45.0800681 459.731,46.3510681 477.286,41.6110681 C479.493,41.0150681 481.91,40.9530681 484.218,41.0240681 C489.645,41.1910681 491.875,44.8720681 488.296,48.8680681 C482.565,55.2680681 476.076,61.0440681 469.516,66.6250681 C465.428,70.1030681 460.621,72.7350681 455.002,76.5090681 C457.771,76.7050681 459.229,77.1050681 460.569,76.8590681 C485.055,72.3640681 505.369,80.5960681 523.196,96.9600681 C533,105.958068 543.218,114.503068 552.98,123.545068 C555.456,125.839068 557.198,129.098068 558.747,132.181068 C560.92,136.508068 559.537,140.684068 555.141,142.036068 C548.074,144.211068 540.704,145.644068 533.36,146.601068 C527.976,147.302068 522.428,146.738068 516.954,146.738068 C516.86,147.206068 516.766,147.673068 516.673,148.140068 C521.654,149.384068 526.575,151.074068 531.631,151.770068 C539.995,152.921068 545.825,156.812068 548.986,164.796068 C553.046,175.047068 559.862,182.977068 569.487,188.534068 C578.483,193.727068 583.134,202.424068 587.18,211.482068 C588.671,214.822068 590.024,218.255068 591.057,221.758068 C591.719,224.003068 591.68,226.454068 591.956,228.812068 C589.433,228.589068 586.737,228.860068 584.419,228.049068 C577.35,225.576068 570.5,222.476068 563.422,220.032068 C558.564,218.355068 553.5,217.224068 548.465,216.139068 C546.473,215.710068 544.311,216.069068 541.697,217.240068 C543.018,218.279068 544.35,219.305068 545.659,220.360068 C553.039,226.307068 560.775,231.872068 567.694,238.315068 C575.425,245.516068 579.524,254.628068 579.01,265.566068 C578.55,275.357068 581.489,284.300068 588.728,290.908068 C597.432,298.853068 599.748,308.906068 599.924,319.785068 C600.229,338.601068 596.68,356.902068 591.114,374.779068 C588.848,382.058068 585.924,389.198068 582.596,396.059068 C579.973,401.465068 578.33,401.366068 573.444,398.197068 C566.638,393.781068 559.01,391.898068 551.826,391.158068 Z" id="slepnir-mobile" fill="url(#linearGradient-1)"/></g></svg>

<svg preserveAspectRatio="xMinYMin" viewBox="-80 0 828 828" xmlns="http://www.w3.org/2000/svg"><defs><linearGradient x1="50%" y1="0%" x2="50%" y2="100%" id="a"><stop stop-color="#52E6FE" offset="0%"/><stop stop-color="#1B4DF8" offset="100%"/></linearGradient></defs><path d="M293.475 347.297c-10.025 4.807-19.835 10.146-30.123 14.302-16.951 6.848-33.853 14.354-51.479 18.778-9.801 2.46-16.042 6.812-21.791 14.247-10.589 13.691-21.023 27.622-32.869 40.182-9.025 9.57-18.201 18.746-25.59 29.774-11.952 17.837-29.829 24.396-50.406 22.065-36.296-4.11-62.384-22.893-75.83-57.336-3.094-7.925-4.032-16.787-5.191-25.322-.434-3.19.549-7.144 2.218-9.96 10.785-18.192 21.823-36.237 32.995-54.195 23.057-37.06 46.424-73.929 69.293-111.105 8.294-13.483 14.861-27.823 19.126-43.27 5.064-18.34 15.953-33.577 28.112-47.905 12.907-15.21 27.953-28.04 44.211-39.51 1.201-.847 2.247-1.913 3.954-3.385-2.806-2.46-5.367-4.683-7.902-6.935-20.338-18.057-36.438-39.256-47.215-64.305-1.694-3.937-3.139-8.245-3.377-12.456-.174-3.092.999-7.048 3.038-9.282 2.683-2.939 6.522-1.339 9.577.765 13.447 9.262 26.53 19.105 40.385 27.705 20.223 12.554 40.918 24.362 61.615 36.13 3.271 1.86 7.597 2.47 11.465 2.577 33.75.937 66.69 6.158 97.981 19.21 59.25 24.71 100.82 66.704 122.491 127.518 8.321 23.351 11.08 47.538 9.035 72.307-1.272 15.413-1.08 31-3.206 46.277-3.346 24.046-7.682 47.977-12.344 71.811-6.233 31.868-12.176 63.762-14.63 96.18-1.57 20.733-2.979 41.49-3.872 62.262-.8 18.63-.642 37.3-1.296 55.94-.113 3.206-1.507 6.848-3.455 9.42-6.431 8.492-13.251 16.705-20.252 24.738-1.505 1.727-4.391 3.184-6.645 3.19-78.332.162-156.664.17-234.995-.019-2.566-.006-5.856-1.646-7.563-3.608-7.317-8.414-14.273-17.154-21.095-25.98-1.285-1.664-1.922-4.275-1.891-6.434.158-10.818.208-21.666 1.088-32.439 2.273-27.842 7.786-55.026 17.837-81.189 13.257-34.507 31.789-66.08 54.606-94.987 17.007-21.547 35.291-42.086 53.003-63.076.521-.618 1.016-1.257 1.523-1.886l-.536-.794zm20.605 480.594c-59.328 0-118.656.002-177.983-.003-7.532 0-7.551-.275-8.32-7.749-1.669-16.212-3.439-32.419-5.535-48.58-.544-4.198.212-7.336 3.019-10.437 15.311-16.916 30.514-33.93 45.743-50.92 7.781-8.682 15.639-17.297 23.257-26.12 2.702-3.13 5.537-4.635 9.823-4.625 73.326.161 146.652.195 219.978.146 3.681-.003 6.122 1.19 8.557 3.925 23.589 26.494 47.339 52.846 70.939 79.331 1.165 1.307 2.082 3.548 1.906 5.227-1.925 18.36-4.201 36.684-6.1 55.046-.383 3.696-1.82 4.83-5.301 4.795-11.664-.114-23.331-.037-34.996-.036H314.08zm237.746-436.733c1.76 8.487 3.085 16.776 5.291 24.824 1.384 5.048 3.124 10.553 6.398 14.418 7.682 9.068 9.191 19.154 6.574 29.955-1.818 7.502-4.511 14.927-7.865 21.878-2.712 5.62-6.377 6.494-12.167 3.942-5.774-2.544-11.112-6.078-16.889-8.613-2.77-1.216-7.53-2.628-8.906-1.327-3.067 2.901.044 6.493 2.064 9.19 5.289 7.062 10.763 13.992 16.346 20.826 8.131 9.953 8.647 20.968 1.904 31.06-8.336 12.471-13.081 25.302-13.245 40.467-.211 19.49-11.847 26.05-27.291 28.857-5.713 1.04-11.562 1.322-17.341 2.016-2.919.35-3.865-1.062-3.824-3.745.096-6.163-.117-12.34.185-18.492 1.238-25.258 1.544-50.625 4.227-75.735 3.318-31.063 8.343-61.96 13.216-92.836 3.967-25.14 9.266-50.075 13.055-75.24 2.123-14.104 2.481-28.483 3.432-42.752.553-8.3.925-16.624 1.005-24.94.461-47.924-14.97-90.65-43.263-128.832-38.61-52.106-91.133-81.825-154.268-93.315-16.289-2.965-33.031-3.437-49.565-5.063-1.264-.124-2.52-.317-5.171-.656 4.882-4.977 8.848-9.325 13.137-13.327 8.089-7.547 16.547-14.72 27.998-16.42 6.402-.95 13.02-.623 19.349-1.855 7.819-1.522 15.587-3.64 23.12-6.244 23.905-8.263 46.282-3.074 68.211 7.051.294.136.579.357.782.608.193.24.274.571.683 1.485-1.918.785-3.769 1.715-5.722 2.312-7.801 2.388-15.801 4.237-23.394 7.155-4.692 1.803-8.955 4.94-13.048 7.968-1.433 1.061-1.781 3.59-3.256 6.835 5.581-1.407 9.636-2.648 13.779-3.432 12.627-2.39 25.265-1.959 37.641 1.308 17.391 4.591 34.723 5.862 52.278 1.122 2.207-.596 4.624-.658 6.932-.587 5.427.167 7.657 3.848 4.078 7.844-5.731 6.4-12.22 12.176-18.78 17.757-4.088 3.478-8.895 6.11-14.514 9.884 2.769.196 4.227.596 5.567.35 24.486-4.495 44.8 3.737 62.627 20.101 9.804 8.998 20.022 17.543 29.784 26.585 2.476 2.294 4.218 5.553 5.767 8.636 2.173 4.327.79 8.503-3.606 9.855-7.067 2.175-14.437 3.608-21.781 4.565-5.384.701-10.932.137-16.406.137l-.281 1.402c4.981 1.244 9.902 2.934 14.958 3.63 8.364 1.151 14.194 5.042 17.355 13.026 4.06 10.251 10.876 18.181 20.501 23.738 8.996 5.193 13.647 13.89 17.693 22.948 1.491 3.34 2.844 6.773 3.877 10.276.662 2.245.623 4.696.899 7.054-2.523-.223-5.219.048-7.537-.763-7.069-2.473-13.919-5.573-20.997-8.017-4.858-1.677-9.922-2.808-14.957-3.893-1.992-.429-4.154-.07-6.768 1.101 1.321 1.04 2.653 2.065 3.962 3.12 7.38 5.947 15.116 11.512 22.035 17.955 7.731 7.201 11.83 16.313 11.316 27.251-.46 9.791 2.479 18.734 9.718 25.342 8.704 7.945 11.02 17.998 11.196 28.877.305 18.816-3.244 37.117-8.81 54.994-2.266 7.28-5.19 14.42-8.518 21.28-2.623 5.406-4.266 5.307-9.152 2.138-6.806-4.416-14.434-6.299-21.618-7.039z" fill="url(#a)" fill-rule="evenodd"/></svg>
